pix_core/e/cell_props.svg

<!DOCTYPE svg PUBLIC "-//W3C//DTD SVG 1.1//EN" "http://www.w3.org/Graphics/SVG/1.1/DTD/svg11.dtd" [
	<!ENTITY ns_flows "http://ns.adobe.com/Flows/1.0/">
]><svg xmlns="http://www.w3.org/2000/svg" width="16" height="16" viewBox="0 -1 16 16" preserveAspectRatio="xMinYMid meet" overflow="visible" enable-background="new 0 -1 16 16"><path d="M0 0v14h16v-14h-16zm5 13h-4v-3h4v3zm0-4h-4v-3h4v3zm0-4h-4v-3h4v3zm5 8h-4v-3h4v3zm0-8h-4v-3h4v3zm5 8h-4v-3h4v3zm0-4h-4v-3h4v3zm0-4h-4v-3h4v3z" fill="#888"/></svg>

<?xml version="1.0" encoding="utf-8"?>
<!-- Generator: Adobe Illustrator 15.1.0, SVG Export Plug-In  -->
<!DOCTYPE svg PUBLIC "-//W3C//DTD SVG 1.1//EN" "http://www.w3.org/Graphics/SVG/1.1/DTD/svg11.dtd" [
	<!ENTITY ns_flows "http://ns.adobe.com/Flows/1.0/">
]>
<svg version="1.1"
	 xmlns="http://www.w3.org/2000/svg" xmlns:xlink="http://www.w3.org/1999/xlink" xmlns:a="http://ns.adobe.com/AdobeSVGViewerExtensions/3.0/"
	 x="0px" y="0px" width="16px" height="16px" viewBox="0 -1 16 16" style="overflow:visible;enable-background:new 0 -1 16 16;"
	 xml:space="preserve" preserveAspectRatio="xMinYMid meet">
<defs>
</defs>
<path style="fill:#29a1c4;" d="M0,0v14h16V0H0z M5,13H1v-3h4V13z M5,9H1V6h4V9z M5,5H1V2h4V5z M10,13H6v-3h4V13z M10,5H6V2h4V5z
	 M15,13h-4v-3h4V13z M15,9h-4V6h4V9z M15,5h-4V2h4V5z"/>
</svg>
